public/icons/polki.svg

<svg width="90" height="91" viewBox="0 0 90 91" fill="none" xmlns="http://www.w3.org/2000/svg">
<path d="M89.5368 42.7806C89.5368 44.4214 89.5368 46.0641 89.5368 47.705C89.4428 47.7603 89.452 47.8525 89.4464 47.9428C89.4317 48.2544 89.4243 48.5678 89.3948 48.8794C89.2695 50.2381 89.1035 51.5895 88.8731 52.9354C88.2057 56.8421 87.0203 60.5865 85.3463 64.1724C84.3046 66.4051 83.086 68.5419 81.6793 70.5699C79.9648 73.0459 78.0456 75.3486 75.8646 77.4301C75.1806 78.0846 74.4874 78.7262 73.7684 79.342C72.5332 80.4002 71.2408 81.3866 69.8931 82.2973C68.0255 83.5602 66.0787 84.6867 64.0397 85.6583C62.4486 86.4161 60.8207 87.0816 59.1522 87.6495C57.1095 88.3445 55.0226 88.8847 52.8987 89.2719C51.7981 89.4728 50.6919 89.6332 49.5802 89.7475C48.8612 89.8213 48.144 89.8969 47.4213 89.919C47.3439 89.9208 47.272 89.9319 47.2278 90.0075C45.587 90.0075 43.9443 90.0075 42.3035 90.0075C42.2592 89.9319 42.1873 89.919 42.1099 89.919C41.8868 89.9227 41.6637 89.8932 41.4407 89.8803C40.093 89.7973 38.7545 89.6314 37.4253 89.4083C34.9641 88.9972 32.5508 88.3943 30.1891 87.5776C27.9215 86.7922 25.7331 85.8316 23.6185 84.6996C21.9795 83.822 20.4014 82.8467 18.8878 81.7701C16.622 80.1587 14.5147 78.3667 12.5937 76.3553C11.9503 75.6823 11.3198 74.9983 10.7114 74.2922C9.59415 72.998 8.56541 71.6355 7.61042 70.2196C6.47107 68.529 5.45893 66.7664 4.5574 64.9357C3.68722 63.1658 2.93871 61.3461 2.3082 59.4804C1.69981 57.6754 1.21494 55.8373 0.851748 53.9678C0.599173 52.6718 0.394533 51.3701 0.261793 50.0556C0.189892 49.3366 0.106929 48.6194 0.0884934 47.8967C0.0866498 47.8193 0.075588 47.7474 0 47.7031C0 46.0623 0 44.4196 0 42.7787C0.075588 42.7345 0.0884934 42.6626 0.0884934 42.5852C0.090337 42.1666 0.143802 41.7537 0.173299 41.337C0.252575 40.2585 0.390845 39.1873 0.562301 38.1198C0.984488 35.5074 1.62053 32.9484 2.49994 30.4503C3.14704 28.6122 3.9103 26.8238 4.78601 25.0834C5.71888 23.2269 6.78633 21.4533 7.9644 19.7442C9.43191 17.6148 11.0967 15.6495 12.8924 13.7929C13.4215 13.2472 13.9875 12.7402 14.5442 12.2221C15.5048 11.3279 16.5132 10.4891 17.5549 9.69079C19.5478 8.16425 21.6514 6.80732 23.8729 5.63661C26.0023 4.51567 28.2036 3.56066 30.4841 2.7937C32.2964 2.1853 34.14 1.69304 36.0168 1.328C37.3202 1.07358 38.6292 0.867088 39.951 0.732501C40.67 0.660599 41.3872 0.577635 42.1099 0.559198C42.1873 0.557355 42.2592 0.546293 42.3035 0.470703C43.9443 0.470703 45.587 0.470703 47.2278 0.470703C47.2775 0.555511 47.3587 0.557355 47.4435 0.559198C48.2418 0.577635 49.0345 0.660599 49.8254 0.750938C51.516 0.944521 53.19 1.23213 54.8493 1.61008C58.247 2.38625 61.5047 3.55513 64.6241 5.1001C66.5783 6.06802 68.4477 7.17974 70.2416 8.42236C72.3912 9.91203 74.3915 11.5824 76.2554 13.4131C77.1477 14.2888 77.9902 15.218 78.8051 16.1675C79.9224 17.471 80.9585 18.8353 81.9208 20.2567C83.2814 22.27 84.4539 24.3865 85.4735 26.5915C86.163 28.083 86.7622 29.6096 87.2784 31.1674C87.8517 32.8968 88.3163 34.6556 88.6666 36.444C88.9229 37.7622 89.1367 39.0859 89.2713 40.4226C89.3432 41.1416 89.4243 41.8588 89.4446 42.5815C89.4501 42.6663 89.4612 42.7382 89.5368 42.7806ZM60.9074 63.7023C60.9958 63.6599 61.0419 63.6378 61.088 63.6138C62.3398 62.9372 63.588 62.2514 64.8472 61.5876C65.5053 61.241 65.804 60.7193 65.804 59.98C65.7985 51.1544 65.8003 42.327 65.8021 33.5015C65.8021 31.9326 65.1329 30.76 63.7686 29.9728C60.511 28.0886 57.2589 26.1933 54.0049 24.3017C50.7693 22.423 47.5357 20.5407 44.2983 18.6638C42.8934 17.8489 41.3688 18.7265 41.3688 20.3471C41.3688 23.8684 41.3706 27.3898 41.3632 30.9112C41.3632 31.1011 41.4259 31.1969 41.5845 31.2928C47.3845 34.7662 53.1826 38.2434 58.9808 41.7223C59.25 41.8846 59.5081 42.0616 59.733 42.2828C60.5479 43.0756 60.911 44.0472 60.9092 45.1792C60.9037 51.2448 60.9055 57.3104 60.9074 63.376C60.9074 63.47 60.9074 63.5659 60.9074 63.7023ZM57.1556 55.9221C57.1556 52.976 57.1575 50.028 57.1538 47.0818C57.1538 46.8292 57.1446 46.573 57.1021 46.3241C56.892 45.0722 56.1969 44.1744 55.1037 43.5383C50.4578 40.8392 45.8192 38.1272 41.1789 35.4189C39.3242 34.3367 37.4695 33.2581 35.6186 32.1741C35.1798 31.9178 34.7152 31.8238 34.2211 31.9289C33.3196 32.1188 32.7296 32.8691 32.7278 33.8186C32.7259 37.5336 32.7296 41.2485 32.7204 44.9635C32.7204 45.2179 32.8089 45.3433 33.0135 45.4649C38.6513 48.8314 44.2854 52.2035 49.9213 55.5718C51.2376 56.3591 51.8939 57.5077 51.8921 59.0453C51.8866 62.2901 51.8903 65.5349 51.8903 68.7797C51.8903 68.8387 51.8921 68.8996 51.8903 68.9585C51.8847 69.0747 51.9419 69.0839 52.0285 69.0415C52.0894 69.012 52.1484 68.9788 52.2055 68.9475C53.5366 68.199 54.8622 67.4375 56.2025 66.7056C56.8643 66.3443 57.163 65.8262 57.1611 65.0758C57.1482 62.0246 57.1556 58.9734 57.1556 55.9221ZM48.1367 65.2676C48.1367 63.7982 48.1422 62.3288 48.1348 60.8594C48.1274 59.3771 47.4711 58.2543 46.1935 57.5095C39.6745 53.7042 33.1518 49.9026 26.631 46.0992C25.2575 45.299 23.7162 46.16 23.7088 47.7492C23.6978 50.6143 23.6978 53.4774 23.7088 56.3425C23.7162 58.0792 24.485 59.4066 25.9617 60.3118C30.5173 63.105 35.0784 65.8907 39.6358 68.6802C41.3006 69.6997 42.9672 70.7174 44.632 71.7406C45.1426 72.054 45.6884 72.1886 46.2783 72.0798C47.3955 71.8752 48.1293 70.9829 48.133 69.8103C48.1422 68.2967 48.1367 66.7831 48.1367 65.2676Z" fill="white"/>
<path d="M60.9016 63.7018C60.9016 63.5653 60.9016 63.4695 60.9016 63.3754C60.9016 57.3098 60.8979 51.2442 60.9034 45.1786C60.9053 44.0466 60.5421 43.075 59.7272 42.2823C59.5004 42.0629 59.2442 41.884 58.975 41.7218C53.1768 38.2447 47.3787 34.7657 41.5787 31.2923C41.4183 31.1964 41.3556 31.1005 41.3575 30.9106C41.363 27.3893 41.3611 23.8679 41.363 20.3465C41.363 18.7278 42.8858 17.8484 44.2925 18.6633C47.5299 20.5401 50.7636 22.4206 53.9991 24.3012C57.2531 26.1927 60.5052 28.088 63.7629 29.9722C65.1271 30.7613 65.7964 31.932 65.7964 33.501C65.7945 42.3265 65.7945 51.1539 65.7982 59.9794C65.7982 60.7187 65.4995 61.2405 64.8414 61.5871C63.5822 62.2508 62.3341 62.9367 61.0822 63.6133C61.038 63.6372 60.9901 63.6594 60.9016 63.7018Z" fill="#FF5C3E"/>
<path d="M57.1598 55.9213C57.1598 58.9725 57.1525 62.0238 57.1654 65.075C57.169 65.8235 56.8685 66.3434 56.2067 66.7048C54.8664 67.4367 53.5408 68.1981 52.2097 68.9467C52.1507 68.9798 52.0917 69.0112 52.0327 69.0407C51.9461 69.0831 51.8889 69.0739 51.8945 68.9577C51.8982 68.8987 51.8945 68.8379 51.8945 68.7789C51.8945 65.5341 51.8908 62.2892 51.8963 59.0444C51.8982 57.5068 51.2418 56.3582 49.9255 55.571C44.2896 52.2026 38.6555 48.8306 33.0177 45.4641C32.8131 45.3424 32.7246 45.2171 32.7246 44.9626C32.7357 41.2477 32.7301 37.5327 32.732 33.8178C32.732 32.8683 33.3219 32.1179 34.2253 31.928C34.7194 31.823 35.184 31.917 35.6228 32.1732C37.4756 33.2573 39.3303 34.3377 41.1831 35.4181C45.8235 38.1264 50.462 40.8384 55.1079 43.5375C56.2011 44.1717 56.8943 45.0714 57.1064 46.3233C57.1488 46.5721 57.1561 46.8284 57.158 47.081C57.1617 50.0271 57.1598 52.9751 57.1598 55.9213Z" fill="#FF5C3E"/>
<path d="M48.1303 65.2658C48.1303 66.7794 48.1358 68.2949 48.1285 69.8085C48.1229 70.9793 47.391 71.8734 46.2738 72.0781C45.6838 72.185 45.1381 72.0523 44.6274 71.7388C42.9645 70.7156 41.2979 69.6979 39.6313 68.6784C35.072 65.889 30.5128 63.1032 25.9572 60.3101C24.4805 59.4048 23.7117 58.0774 23.7043 56.3407C23.6914 53.4757 23.6933 50.6125 23.7043 47.7475C23.7098 46.1582 25.2529 45.2954 26.6264 46.0974C33.1473 49.9008 39.67 53.7006 46.189 57.5077C47.4666 58.2526 48.1229 59.3753 48.1303 60.8576C48.1377 62.327 48.1303 63.7964 48.1303 65.2658Z" fill="#FF5C3E"/>
</svg>

<svg width="90" height="91" fill="none" xmlns="http://www.w3.org/2000/svg"><path d="M89.537 42.78v4.925c-.094.055-.085.148-.09.238-.015.311-.023.625-.052.936a52.671 52.671 0 0 1-.522 4.056 43.963 43.963 0 0 1-3.527 11.237 43.392 43.392 0 0 1-3.667 6.398c-1.714 2.476-3.633 4.779-5.814 6.86a51.432 51.432 0 0 1-2.097 1.912 42.714 42.714 0 0 1-3.875 2.955 44.998 44.998 0 0 1-5.853 3.361 45.312 45.312 0 0 1-4.888 1.992 43.766 43.766 0 0 1-9.572 2.097c-.719.074-1.436.15-2.159.172-.077.002-.149.013-.193.088h-4.925c-.044-.075-.116-.088-.193-.088-.223.004-.446-.026-.67-.039a38.588 38.588 0 0 1-4.015-.472 44.548 44.548 0 0 1-7.236-1.83 45.343 45.343 0 0 1-6.57-2.878 43.922 43.922 0 0 1-4.731-2.93 43.611 43.611 0 0 1-6.294-5.415 53.986 53.986 0 0 1-1.883-2.063 43.1 43.1 0 0 1-3.1-4.072 45.027 45.027 0 0 1-3.054-5.284 45.018 45.018 0 0 1-2.249-5.456 42.79 42.79 0 0 1-1.456-5.512 43.055 43.055 0 0 1-.59-3.912c-.072-.72-.155-1.437-.174-2.16-.001-.077-.012-.149-.088-.193V42.78c.076-.045.088-.116.088-.194.002-.418.056-.831.085-1.248.08-1.079.218-2.15.39-3.217A44.347 44.347 0 0 1 2.5 30.45a45.673 45.673 0 0 1 2.286-5.367c.933-1.856 2-3.63 3.178-5.339 1.468-2.13 3.133-4.095 4.928-5.951.53-.546 1.096-1.053 1.652-1.57a41.09 41.09 0 0 1 3.01-2.532 44.494 44.494 0 0 1 6.319-4.054 44.926 44.926 0 0 1 6.611-2.843 43.42 43.42 0 0 1 5.533-1.466A43.553 43.553 0 0 1 39.95.733C40.67.66 41.387.578 42.11.559c.077-.002.15-.013.194-.088h4.924c.05.085.13.086.215.088.799.019 1.592.102 2.382.192a46.34 46.34 0 0 1 5.024.86 44.073 44.073 0 0 1 9.775 3.49 44.7 44.7 0 0 1 5.618 3.321c2.15 1.49 4.15 3.16 6.013 4.991a43.934 43.934 0 0 1 2.55 2.755 45.274 45.274 0 0 1 3.116 4.089 45.023 45.023 0 0 1 5.357 10.91 43.062 43.062 0 0 1 1.389 5.277c.256 1.318.47 2.642.604 3.979.072.719.153 1.436.174 2.158.005.085.016.157.092.2Zm-28.63 20.922c.089-.042.135-.064.181-.088 1.252-.677 2.5-1.363 3.76-2.026.657-.347.956-.869.956-1.608-.005-8.826-.004-17.653-.002-26.478 0-1.57-.67-2.742-2.033-3.53-3.258-1.883-6.51-3.779-9.764-5.67-3.236-1.879-6.47-3.761-9.707-5.638-1.405-.815-2.93.063-2.93 1.683 0 3.521.003 7.043-.005 10.564 0 .19.063.286.221.382 5.8 3.473 11.599 6.95 17.397 10.43.269.162.527.339.752.56.815.793 1.178 1.764 1.176 2.896-.005 6.066-.003 12.131-.002 18.197v.326Zm-3.751-7.78c0-2.946.002-5.894-.002-8.84 0-.253-.01-.509-.052-.758-.21-1.252-.905-2.15-1.998-2.786-4.646-2.699-9.285-5.41-13.925-8.12-1.855-1.081-3.71-2.16-5.56-3.244-.44-.256-.904-.35-1.398-.245-.901.19-1.491.94-1.493 1.89-.002 3.715.002 7.43-.008 11.145 0 .254.089.38.294.5 5.637 3.367 11.271 6.74 16.907 10.108 1.317.787 1.973 1.936 1.971 3.473-.005 3.245-.002 6.49-.002 9.735 0 .059.002.12 0 .178-.005.117.052.126.139.084.06-.03.12-.063.176-.094 1.332-.749 2.657-1.51 3.998-2.242.661-.362.96-.88.958-1.63-.013-3.051-.005-6.103-.005-9.154Zm-9.02 9.346c0-1.47.006-2.94-.001-4.409-.008-1.482-.664-2.605-1.941-3.35-6.52-3.805-13.042-7.606-19.563-11.41-1.373-.8-2.915.061-2.922 1.65-.011 2.865-.011 5.728 0 8.593.007 1.737.776 3.065 2.253 3.97 4.555 2.793 9.116 5.579 13.674 8.368 1.665 1.02 3.331 2.037 4.996 3.06.51.314 1.056.449 1.646.34 1.117-.205 1.851-1.097 1.855-2.27.01-1.513.004-3.027.004-4.542Z" fill="#fff"/><path d="M60.902 63.702v-.327c0-6.065-.004-12.13.001-18.196.002-1.132-.36-2.104-1.176-2.897a4.133 4.133 0 0 0-.752-.56c-5.798-3.477-11.596-6.956-17.396-10.43-.16-.096-.223-.192-.221-.381.005-3.522.003-7.043.005-10.565 0-1.618 1.523-2.498 2.93-1.683 3.237 1.877 6.47 3.758 9.706 5.638 3.254 1.892 6.506 3.787 9.764 5.671 1.364.79 2.033 1.96 2.033 3.529-.002 8.826-.002 17.653.002 26.478 0 .74-.299 1.261-.957 1.608-1.259.664-2.507 1.35-3.759 2.026-.044.024-.092.046-.18.089Z" fill="#FF5C3E"/><path d="M57.16 55.921c0 3.051-.007 6.103.005 9.154.004.748-.297 1.268-.958 1.63-1.34.732-2.666 1.493-3.997 2.242a4.211 4.211 0 0 1-.177.094c-.087.042-.144.033-.139-.083.004-.06 0-.12 0-.18 0-3.244-.003-6.489.002-9.734.002-1.537-.654-2.686-1.97-3.473-5.636-3.368-11.27-6.74-16.908-10.107-.205-.122-.293-.247-.293-.501.01-3.715.005-7.43.007-11.145 0-.95.59-1.7 1.493-1.89.494-.105.959-.011 1.398.245 1.853 1.084 3.707 2.165 5.56 3.245 4.64 2.708 9.279 5.42 13.925 8.12 1.093.634 1.786 1.533 1.998 2.785.043.25.05.505.052.758.004 2.946.002 5.894.002 8.84Z" fill="#FF5C3E"/><path d="M48.13 65.266c0 1.513.006 3.029-.002 4.542-.005 1.171-.737 2.065-1.854 2.27-.59.107-1.136-.026-1.647-.34-1.663-1.022-3.33-2.04-4.996-3.06-4.559-2.789-9.118-5.575-13.674-8.368-1.477-.905-2.245-2.233-2.253-3.97-.013-2.864-.01-5.728 0-8.593.006-1.589 1.549-2.452 2.922-1.65 6.521 3.804 13.044 7.604 19.563 11.41 1.278.746 1.934 1.868 1.941 3.35.008 1.47 0 2.94 0 4.409Z" fill="#FF5C3E"/></svg>
